; generated by Slic3r 1.2.9 on 2016-08-11 at 19:03:04

; external perimeters extrusion width = 0.50mm
; perimeters extrusion width = 0.85mm
; infill extrusion width = 1.98mm
; solid infill extrusion width = 0.85mm
; top infill extrusion width = 0.85mm

M107
M190 S60 ; set bed temperature
;--------------------------------------
; RF1000
;--------------------------------------
G28 ; home all axes
G1 Z5 F5000 ; lift nozzle
M109 S210 ; wait for extruder temp to be reached
M3001 ; Aktivate Z-Compensation 
G90 ; use absolute coordinates
M82 ; use absolute distances for extrusion
G92 E0 ; start line
G1 F300 E-0.5
G1 X230 Y25 Z0.35 F5000
G1 F800 E8
G1 X20 E25 F1000
; Acceleration up to...
; Acc printing
M201 X6000 Y6000 Z1000
; Acc travel
M202 X6000 Y6000 Z1000
; Move Z-axis n-steps up (see manual)
M3004 S0 ; + n-steps bed down // - n-steps bed up!
;--------------------------------------
G21 ; set units to millimeters
G90 ; use absolute coordinates
M82 ; use absolute distances for extrusion
G92 E0
G1 E-2.00000 F1800.00000
G92 E0
G1 Z0.500 F9000.000
G1 X99.140 Y54.740 F9000.000
G1 E2.00000 F1800.00000
G1 X101.090 Y54.740 E2.11941 F756.000
G1 X101.332 Y53.654 E2.18756
G1 X101.691 Y52.421 E2.26625
G1 X102.126 Y51.212 E2.34494
G1 X102.636 Y50.033 E2.42363
G1 X103.219 Y48.888 E2.50232
G1 X103.873 Y47.782 E2.58101
G1 X104.595 Y46.720 E2.65970
G1 X105.383 Y45.705 E2.73839
G1 X106.232 Y44.741 E2.81708
G1 X107.141 Y43.832 E2.89577
G1 X108.105 Y42.983 E2.97446
G1 X109.120 Y42.195 E3.05315
G1 X110.182 Y41.473 E3.13184
G1 X111.288 Y40.819 E3.21053
G1 X112.433 Y40.236 E3.28922
G1 X113.612 Y39.726 E3.36791
G1 X114.821 Y39.291 E3.44660
G1 X116.054 Y38.932 E3.52529
G1 X117.308 Y38.652 E3.60398
G1 X118.577 Y38.451 E3.68267
G1 X119.856 Y38.330 E3.76136
G1 X120.982 Y38.295 E3.83035
G1 X122.422 Y38.330 E3.91862
G1 X123.703 Y38.451 E3.99742
G1 X124.972 Y38.652 E4.07611
G1 X126.226 Y38.932 E4.15480
G1 X127.459 Y39.291 E4.23349
G1 X128.668 Y39.726 E4.31218
G1 X129.847 Y40.236 E4.39087
G1 X130.992 Y40.819 E4.46956
G1 X132.098 Y41.473 E4.54825
G1 X133.160 Y42.195 E4.62694
G1 X134.175 Y42.983 E4.70563
G1 X135.139 Y43.832 E4.78432
G1 X136.048 Y44.741 E4.86301
G1 X136.897 Y45.705 E4.94170
G1 X137.685 Y46.720 E5.02039
G1 X138.407 Y47.782 E5.09908
G1 X139.061 Y48.888 E5.17777
G1 X139.644 Y50.033 E5.25646
G1 X140.154 Y51.212 E5.33515
G1 X140.589 Y52.421 E5.41384
G1 X140.948 Y53.654 E5.49253
G1 X141.190 Y54.740 E5.56068
G1 X143.140 Y54.740 E5.68009
G1 X143.140 Y62.740 E6.17010
G1 X141.190 Y62.740 E6.28952
G1 X140.948 Y63.826 E6.35766
G1 X140.589 Y65.059 E6.43635
G1 X140.154 Y66.268 E6.51504
G1 X139.644 Y67.447 E6.59373
G1 X139.061 Y68.592 E6.67242
G1 X138.407 Y69.698 E6.75111
G1 X137.685 Y70.760 E6.82980
G1 X136.897 Y71.775 E6.90850
G1 X136.048 Y72.739 E6.98718
G1 X135.139 Y73.648 E7.06590
G1 X134.445 Y74.258 E7.12250
G1 X135.422 Y76.354 E7.26418
G1 X125.453 Y81.003 E7.93794
G1 X124.475 Y78.907 E8.07963
G1 X123.703 Y79.029 E8.12752
G1 X122.424 Y79.150 E8.20621
G1 X121.140 Y79.190 E8.28490
G1 X119.856 Y79.150 E8.36359
G1 X118.577 Y79.029 E8.44228
G1 X117.308 Y78.828 E8.52097
G1 X116.054 Y78.548 E8.59966
G1 X114.821 Y78.189 E8.67835
G1 X113.612 Y77.754 E8.75704
G1 X112.433 Y77.244 E8.83573
G1 X111.288 Y76.661 E8.91442
G1 X110.182 Y76.007 E8.99311
G1 X109.120 Y75.285 E9.07180
G1 X108.105 Y74.497 E9.15049
G1 X107.141 Y73.648 E9.22918
G1 X106.232 Y72.739 E9.30787
G1 X105.383 Y71.775 E9.38656
G1 X104.595 Y70.760 E9.46525
G1 X103.873 Y69.698 E9.54394
G1 X103.219 Y68.592 E9.62263
G1 X102.636 Y67.447 E9.70132
G1 X102.126 Y66.268 E9.78001
G1 X101.691 Y65.059 E9.85870
G1 X101.332 Y63.826 E9.93739
G1 X101.090 Y62.740 E10.00554
G1 X99.140 Y62.740 E10.12495
G1 X99.140 Y54.815 E10.61037
G1 X99.140 Y54.240 F9000.000
G1 X99.593 Y53.847 F9000.000
G1 X99.728 Y53.242 E10.64834 F1080.000
G1 X100.115 Y51.909 E10.73340
G1 X100.586 Y50.602 E10.81847
G1 X101.137 Y49.327 E10.90353
G1 X101.745 Y48.136 E10.98546
G1 X102.476 Y46.893 E11.07374
G1 X103.253 Y45.750 E11.15845
G1 X104.533 Y44.121 E11.28533
G1 X104.533 Y36.097 E11.77682
G1 X137.747 Y36.097 E13.81125
G1 X137.747 Y44.121 E14.30275
G1 X139.027 Y45.750 E14.42962
G1 X139.805 Y46.895 E14.51442
G1 X140.512 Y48.090 E14.59949
G1 X141.143 Y49.327 E14.68455
G1 X141.694 Y50.602 E14.76961
G1 X142.165 Y51.909 E14.85468
G1 X142.552 Y53.242 E14.93974
G1 X142.687 Y53.847 E14.97771
G1 X141.906 Y53.847 E15.02559
G1 X141.813 Y53.432 E15.05165
G1 X141.439 Y52.145 E15.13378
G1 X140.985 Y50.883 E15.21591
G1 X140.452 Y49.652 E15.29803
G1 X139.843 Y48.458 E15.38016
G1 X139.161 Y47.304 E15.46228
G1 X138.407 Y46.195 E15.54441
G1 X137.585 Y45.135 E15.62654
G1 X136.699 Y44.129 E15.70867
G1 X135.751 Y43.181 E15.79079
G1 X134.745 Y42.295 E15.87292
G1 X133.685 Y41.473 E15.95505
G1 X132.576 Y40.719 E16.03718
G1 X131.422 Y40.037 E16.11930
G1 X130.228 Y39.428 E16.20143
G1 X128.997 Y38.895 E16.28355
G1 X127.735 Y38.441 E16.36568
G1 X126.448 Y38.067 E16.44781
G1 X125.139 Y37.775 E16.52993
G1 X123.815 Y37.565 E16.61206
G1 X122.475 Y37.438 E16.69449
G1 X120.979 Y37.402 E16.78619
G1 X119.800 Y37.439 E16.85843
G1 X118.465 Y37.565 E16.94055
G1 X117.141 Y37.775 E17.02268
G1 X115.832 Y38.067 E17.10481
G1 X114.545 Y38.441 E17.18693
G1 X113.283 Y38.895 E17.26906
G1 X112.052 Y39.428 E17.35119
G1 X110.858 Y40.037 E17.43332
G1 X109.704 Y40.719 E17.51544
G1 X108.595 Y41.473 E17.59757
G1 X107.535 Y42.295 E17.67970
G1 X106.529 Y43.181 E17.76182
G1 X105.581 Y44.129 E17.84395
G1 X104.695 Y45.135 E17.92608
G1 X103.873 Y46.195 E18.00821
G1 X103.119 Y47.304 E18.09033
G1 X102.437 Y48.458 E18.17246
G1 X101.828 Y49.652 E18.25459
G1 X101.295 Y50.883 E18.33671
G1 X100.841 Y52.145 E18.41884
G1 X100.467 Y53.432 E18.50097
G1 X100.374 Y53.847 E18.52702
G1 X99.668 Y53.847 E18.57031
G1 E16.57031 F1800.00000
G92 E0
G1 X100.069 Y53.466 F9000.000
G1 X136.087 Y76.596 F9000.000
G1 X136.609 Y76.786 F9000.000
G1 E2.00000 F1800.00000
G1 X135.536 Y74.487 E2.15539 F1080.000
G1 X135.750 Y74.299 E2.17279
G1 X136.699 Y73.351 E2.25498
G1 X137.585 Y72.345 E2.33710
G1 X138.407 Y71.285 E2.41923
G1 X139.161 Y70.176 E2.50136
G1 X139.843 Y69.022 E2.58348
G1 X140.452 Y67.828 E2.66561
G1 X140.985 Y66.597 E2.74774
G1 X141.439 Y65.335 E2.82987
G1 X141.813 Y64.048 E2.91199
G1 X141.906 Y63.633 E2.93805
G1 X142.687 Y63.633 E2.98593
G1 X142.552 Y64.238 E3.02390
G1 X142.165 Y65.571 E3.10896
G1 X141.694 Y66.878 E3.19403
G1 X141.143 Y68.153 E3.27909
G1 X140.512 Y69.390 E3.36415
G1 X139.805 Y70.585 E3.44922
G1 X139.027 Y71.730 E3.53402
G1 X137.747 Y73.359 E3.66090
G1 X137.747 Y81.383 E4.15239
G1 X127.743 Y81.383 E4.76518
G1 X127.650 Y80.964 E4.79151
G1 X136.541 Y76.818 E5.39238
G1 X124.645 Y81.383 F9000.000
G1 X104.533 Y81.383 E6.62430 F1080.000
G1 X104.533 Y73.359 E7.11579
G1 X103.253 Y71.730 E7.24267
G1 X102.475 Y70.585 E7.32747
G1 X101.768 Y69.390 E7.41253
G1 X101.137 Y68.153 E7.49759
G1 X100.586 Y66.878 E7.58266
G1 X100.115 Y65.571 E7.66772
G1 X99.742 Y64.287 E7.74965
G1 X99.595 Y63.633 E7.79073
G1 X100.374 Y63.633 E7.83849
G1 X100.467 Y64.048 E7.86455
G1 X100.841 Y65.335 E7.94668
G1 X101.295 Y66.597 E8.02881
G1 X101.828 Y67.828 E8.11093
G1 X102.437 Y69.022 E8.19306
G1 X103.119 Y70.176 E8.27519
G1 X103.873 Y71.285 E8.35731
G1 X104.695 Y72.345 E8.43944
G1 X105.581 Y73.351 E8.52157
G1 X106.529 Y74.299 E8.60369
G1 X107.535 Y75.185 E8.68582
G1 X108.595 Y76.007 E8.76795
G1 X109.704 Y76.761 E8.85008
G1 X110.858 Y77.443 E8.93220
G1 X112.052 Y78.052 E9.01433
G1 X113.283 Y78.585 E9.09646
G1 X114.545 Y79.039 E9.17858
G1 X115.832 Y79.413 E9.26071
G1 X117.141 Y79.705 E9.34284
G1 X118.465 Y79.915 E9.42497
G1 X119.800 Y80.041 E9.50709
G1 X121.140 Y80.083 E9.58922
G1 X122.480 Y80.041 E9.67135
G1 X123.954 Y79.902 E9.76205
G1 X124.614 Y81.315 E9.85758
G1 X138.640 Y82.276 F9000.000
G1 X103.640 Y82.276 E12.00137 F756.000
G1 X103.640 Y73.668 E12.52863
G1 X102.532 Y72.258 E12.63848
G1 X101.721 Y71.064 E12.72689
G1 X100.985 Y69.820 E12.81539
G1 X100.329 Y68.533 E12.90389
G1 X99.755 Y67.207 E12.99239
G1 X99.266 Y65.847 E13.08089
G1 X98.877 Y64.510 E13.16620
G1 X98.548 Y63.049 E13.25792
G1 X98.322 Y61.623 E13.34639
G1 X98.186 Y60.184 E13.43489
G1 X98.140 Y58.740 E13.52339
G1 X98.186 Y57.296 E13.61189
G1 X98.322 Y55.857 E13.70039
G1 X98.548 Y54.430 E13.78889
G1 X98.863 Y53.020 E13.87739
G1 X99.266 Y51.633 E13.96589
G1 X99.755 Y50.273 E14.05439
G1 X100.329 Y48.947 E14.14289
G1 X100.961 Y47.706 E14.22820
G1 X101.721 Y46.416 E14.31992
G1 X102.532 Y45.222 E14.40830
G1 X103.640 Y43.812 E14.51815
G1 X103.640 Y35.204 E15.04541
G1 X138.640 Y35.204 E17.18920
G1 X138.640 Y43.812 E17.71646
G1 X139.748 Y45.222 E17.82632
G1 X140.559 Y46.416 E17.91473
G1 X141.295 Y47.660 E18.00323
G1 X141.951 Y48.947 E18.09173
G1 X142.525 Y50.273 E18.18023
G1 X143.014 Y51.633 E18.26873
G1 X143.417 Y53.020 E18.35723
G1 X143.732 Y54.430 E18.44573
G1 X143.958 Y55.857 E18.53423
G1 X144.094 Y57.296 E18.62273
G1 X144.140 Y58.740 E18.71123
G1 X144.094 Y60.184 E18.79973
G1 X143.958 Y61.623 E18.88823
G1 X143.732 Y63.050 E18.97673
G1 X143.417 Y64.460 E19.06523
G1 X143.014 Y65.847 E19.15373
G1 X142.525 Y67.207 E19.24223
G1 X141.951 Y68.533 E19.33073
G1 X141.295 Y69.820 E19.41923
G1 X140.559 Y71.064 E19.50773
G1 X139.748 Y72.258 E19.59614
G1 X138.640 Y73.668 E19.70600
G1 X138.640 Y82.201 E20.22866
G1 X138.207 Y82.026 F9000.000
G1 X137.198 Y77.656 F9000.000
G1 X136.784 Y77.242 E20.26675 F1080.000
G1 X135.869 Y77.668 E20.33243
G1 X137.198 Y78.997 E20.45470
G1 X137.198 Y80.338 E20.54198
G1 X134.955 Y78.095 E20.74844
G1 X134.040 Y78.521 E20.81412
G1 X136.352 Y80.834 E21.02695
G1 X135.011 Y80.834 E21.11424
G1 X133.125 Y78.948 E21.28781
G1 X132.210 Y79.375 E21.35350
G1 X133.670 Y80.834 E21.48781
G1 X132.329 Y80.834 E21.57510
G1 X131.903 Y80.409 E21.61422
G1 X131.287 Y80.377 F9000.000
G1 X128.869 Y80.914 E21.76593 F360.000
G1 X127.260 Y81.270 F9000.000
G1 X125.289 Y81.707 E21.88963 F360.000
G1 X123.811 Y80.651 F9000.000
G1 X122.515 Y80.712 E21.96910 F360.000
G1 X121.146 Y80.733 E22.05295
G1 X119.765 Y80.712 E22.13759
G1 X118.552 Y80.655 E22.21196
G1 X118.551 Y80.661 F9000.000
G1 X116.969 Y80.536 E22.41806 F360.000
G1 X115.166 Y80.337 E22.65369
G1 X114.669 Y80.012 F9000.000
G1 X114.243 Y79.586 E22.69542 F1080.000
G1 X114.063 Y80.834 E22.78272
G1 X111.923 Y78.694 E22.99230
G1 X112.636 Y80.834 F9000.000
G1 X108.742 Y76.940 E23.37360 F1080.000
G1 X105.082 Y77.561 F9000.000
G1 X108.355 Y80.834 E23.69408 F1080.000
G1 X106.928 Y80.834 E23.79289
G1 X105.082 Y78.988 E23.97363
G1 X105.082 Y80.415 E24.07244
G1 X105.501 Y80.834 E24.11344
G1 X109.782 Y80.834 F9000.000
G1 X105.082 Y76.134 E24.57366 F1080.000
G1 X105.082 Y74.707 E24.67247
G1 X111.209 Y80.834 E25.27242
G1 X118.408 Y80.648 F9000.000
G1 X122.556 Y80.710 F9000.000
G1 X125.235 Y81.719 F9000.000
G1 X136.697 Y77.904 F9000.000
G1 X137.063 Y76.141 F9000.000
G1 X137.066 Y76.154 F9000.000
G1 X136.605 Y74.075 E25.54897 F360.000
G1 E23.54897 F1800.00000
G92 E0
G1 X137.128 Y73.797 F9000.000
G1 X133.454 Y41.791 F9000.000
G1 X133.538 Y40.540 F9000.000
G1 E2.00000 F1800.00000
G1 X129.644 Y36.646 E2.38129 F1080.000
G1 X131.071 Y36.646 E2.48010
G1 X137.198 Y42.773 E3.08006
G1 X137.198 Y41.346 E3.17887
G1 X132.498 Y36.646 E3.63909
G1 X133.925 Y36.646 E3.73790
G1 X137.198 Y39.919 E4.05838
G1 X137.198 Y38.492 E4.15719
G1 X135.352 Y36.646 E4.33793
G1 X136.779 Y36.646 E4.43674
G1 X137.198 Y37.065 E4.47774
G1 X130.357 Y38.786 F9000.000
G1 X128.217 Y36.646 E4.68733 F1080.000
G1 X127.611 Y37.468 E4.75800
G1 X128.037 Y37.894 E4.79973
G1 X127.114 Y37.143 F9000.000
G1 X125.311 Y36.944 E5.03536 F360.000
G1 X123.729 Y36.819 E5.24146
G1 X123.728 Y36.825 F9000.000
G1 X122.507 Y36.768 E5.31632 F360.000
G1 X120.982 Y36.749 E5.40975
G1 X119.765 Y36.768 E5.48432
G1 X118.552 Y36.825 E5.55869
G1 X118.551 Y36.819 F9000.000
G1 X116.969 Y36.944 E5.76478 F360.000
G1 X115.166 Y37.143 E6.00041
G1 X114.583 Y37.067 F9000.000
G1 X114.161 Y36.646 E6.03792 F1080.000
G1 X112.864 Y36.646 E6.11961
G1 X114.241 Y38.023 E6.24219
G1 X113.287 Y38.366 E6.30602
G1 X111.566 Y36.646 E6.45919
G1 X110.269 Y36.646 E6.54087
G1 X112.377 Y38.754 E6.72854
G1 X111.494 Y39.169 E6.78992
G1 X108.971 Y36.646 E7.01454
G1 X107.674 Y36.646 E7.09622
G1 X110.638 Y39.610 E7.36009
G1 X109.822 Y40.092 E7.41972
G1 X106.376 Y36.646 E7.72652
G1 X105.100 Y36.668 E7.80684
G1 X109.033 Y40.600 E8.15693
G1 X108.265 Y41.130 E8.21565
G1 X105.082 Y37.947 E8.49902
G1 X105.082 Y39.244 E8.58070
G1 X107.534 Y41.697 E8.79901
G1 X106.829 Y42.289 E8.85699
G1 X105.082 Y40.542 E9.01251
G1 X105.082 Y41.839 E9.09419
G1 X106.144 Y42.901 E9.18870
G1 X105.495 Y43.550 E9.24646
G1 X105.082 Y43.137 E9.28322
M106 S255
G1 E7.28322 F1800.00000
G92 E0
G1 Z0.600 F9000.000
G1 X135.090 Y76.233 F9000.000
G1 E2.00000 F1800.00000
G1 X125.574 Y80.671 E2.06895 F1745.711
G1 X124.622 Y78.630 E2.08374
G1 X123.672 Y78.781 E2.09006
G1 X122.408 Y78.900 E2.09839
G1 X121.140 Y78.940 E2.10672
G1 X119.872 Y78.900 E2.11506
G1 X118.608 Y78.781 E2.12339
G1 X117.355 Y78.582 E2.13172
G1 X116.116 Y78.305 E2.14006
G1 X114.898 Y77.951 E2.14839
G1 X113.704 Y77.522 E2.15672
G1 X112.539 Y77.018 E2.16506
G1 X111.409 Y76.441 E2.17339
G1 X110.316 Y75.795 E2.18172
G1 X109.267 Y75.082 E2.19006
G1 X108.264 Y74.304 E2.19839
G1 X107.312 Y73.465 E2.20672
G1 X106.415 Y72.568 E2.21506
G1 X105.576 Y71.616 E2.22339
G1 X104.798 Y70.613 E2.23172
G1 X104.085 Y69.564 E2.24006
G1 X103.439 Y68.471 E2.24839
G1 X102.862 Y67.341 E2.25672
G1 X102.358 Y66.176 E2.26506
G1 X101.929 Y64.982 E2.27339
G1 X101.575 Y63.764 E2.28172
G1 X101.290 Y62.490 E2.29029
G1 X99.390 Y62.490 E2.30277
G1 X99.390 Y54.990 E2.35202
G1 X101.290 Y54.990 E2.36450
G1 X101.575 Y53.716 E2.37307
G1 X101.929 Y52.498 E2.38140
G1 X102.358 Y51.304 E2.38973
G1 X102.862 Y50.139 E2.39807
G1 X103.439 Y49.009 E2.40640
G1 X104.085 Y47.916 E2.41473
G1 X104.798 Y46.867 E2.42307
G1 X105.576 Y45.864 E2.43140
G1 X106.415 Y44.912 E2.43973
G1 X107.312 Y44.015 E2.44807
G1 X108.264 Y43.176 E2.45640
G1 X109.267 Y42.398 E2.46473
G1 X110.316 Y41.685 E2.47307
G1 X111.409 Y41.039 E2.48140
G1 X112.539 Y40.462 E2.48973
G1 X113.704 Y39.958 E2.49807
G1 X114.898 Y39.529 E2.50640
G1 X116.116 Y39.175 E2.51473
G1 X117.355 Y38.898 E2.52307
G1 X118.608 Y38.699 E2.53140
G1 X119.872 Y38.580 E2.53973
G1 X121.140 Y38.540 E2.54807
G1 X122.408 Y38.580 E2.55640
G1 X123.672 Y38.699 E2.56473
G1 X124.925 Y38.898 E2.57307
G1 X126.164 Y39.175 E2.58140
G1 X127.382 Y39.529 E2.58973
G1 X128.576 Y39.958 E2.59807
G1 X129.741 Y40.462 E2.60640
G1 X130.871 Y41.039 E2.61473
G1 X131.964 Y41.685 E2.62307
G1 X133.013 Y42.398 E2.63140
G1 X134.016 Y43.176 E2.63973
G1 X134.968 Y44.015 E2.64807
G1 X135.865 Y44.912 E2.65640
G1 X136.704 Y45.864 E2.66473
G1 X137.482 Y46.867 E2.67307
G1 X138.195 Y47.916 E2.68140
G1 X138.841 Y49.009 E2.68973
G1 X139.418 Y50.139 E2.69807
G1 X139.922 Y51.304 E2.70640
G1 X140.351 Y52.498 E2.71473
G1 X140.705 Y53.716 E2.72307
G1 X140.990 Y54.990 E2.73164
G1 X142.890 Y54.990 E2.74411
G1 X142.890 Y62.490 E2.79337
G1 X140.990 Y62.490 E2.80584
G1 X140.705 Y63.764 E2.81441
G1 X140.351 Y64.982 E2.82274
G1 X139.922 Y66.176 E2.83108
G1 X139.418 Y67.341 E2.83941
G1 X138.841 Y68.471 E2.84774
G1 X138.195 Y69.564 E2.85608
G1 X137.482 Y70.613 E2.86441
G1 X136.704 Y71.616 E2.87274
G1 X135.865 Y72.568 E2.88108
G1 X134.968 Y73.465 E2.88941
G1 X134.139 Y74.194 E2.89666
G1 X135.058 Y76.165 E2.91094
G1 X135.301 Y76.687 F9000.000
G1 E0.91094 F1800.00000
G92 E0
G1 X135.057 Y74.387 F9000.000
G1 X138.730 Y71.489 F9000.000
G1 X140.786 Y68.012 F9000.000
G1 X141.339 Y66.737 F9000.000
G1 X141.793 Y65.476 F9000.000
G1 X141.065 Y65.214 F9000.000
G1 X141.514 Y54.336 F9000.000
G1 E2.00000 F1800.00000
G1 X141.339 Y53.554 E2.00912 F2493.872
G1 X140.973 Y52.296 E2.02401
G1 X140.529 Y51.063 E2.03891
G1 X140.009 Y49.861 E2.05380
G1 X139.414 Y48.693 E2.06870
G1 X138.748 Y47.566 E2.08359
G1 X138.011 Y46.482 E2.09849
G1 X137.208 Y45.447 E2.11339
G1 X136.342 Y44.464 E2.12828
G1 X135.416 Y43.538 E2.14318
G1 X134.433 Y42.672 E2.15807
G1 X133.398 Y41.869 E2.17297
G1 X132.314 Y41.132 E2.18786
G1 X131.187 Y40.466 E2.20276
G1 X130.019 Y39.871 E2.21765
G1 X128.817 Y39.351 E2.23255
